svg/fan_off.svg

<svg xmlns="http://www.w3.org/2000/svg" viewBox="0 0 24 24"><path d="M12.5 2C9.64 2 8.57 4.55 9.29 7.47L15 13.16c.87.21 1.81.65 2.28 1.57 1.18 2.37 4.75 2.27 4.75-2.23 0-3.58-3.98-4.37-7.68-2.37-.32-.4-.74-.71-1.22-.91.19-.93.63-1.98 1.62-2.47C17.11 5.57 17 2 12.5 2M3.28 4 2 5.27l2.47 2.46C3.22 7.74 2 8.87 2 11.5c0 3.57 3.96 4.35 7.65 2.37.32.4.75.72 1.24.92-.2.92-.64 1.96-1.62 2.45C6.91 18.42 7 22 11.5 22c2.3 0 3.44-1.64 3.44-3.79L18.73 22 20 20.72z"/></svg>

<?xml version="1.0" encoding="UTF-8"?><!DOCTYPE svg PUBLIC "-//W3C//DTD SVG 1.1//EN" "http://www.w3.org/Graphics/SVG/1.1/DTD/svg11.dtd"><svg xmlns="http://www.w3.org/2000/svg" xmlns:xlink="http://www.w3.org/1999/xlink" version="1.1" id="mdi-fan-off" width="24" height="24" viewBox="0 0 24 24"><path d="M12.5,2C9.64,2 8.57,4.55 9.29,7.47L15,13.16C15.87,13.37 16.81,13.81 17.28,14.73C18.46,17.1 22.03,17 22.03,12.5C22.03,8.92 18.05,8.13 14.35,10.13C14.03,9.73 13.61,9.42 13.13,9.22C13.32,8.29 13.76,7.24 14.75,6.75C17.11,5.57 17,2 12.5,2M3.28,4L2,5.27L4.47,7.73C3.22,7.74 2,8.87 2,11.5C2,15.07 5.96,15.85 9.65,13.87C9.97,14.27 10.4,14.59 10.89,14.79C10.69,15.71 10.25,16.75 9.27,17.24C6.91,18.42 7,22 11.5,22C13.8,22 14.94,20.36 14.94,18.21L18.73,22L20,20.72L3.28,4Z" /></svg>
